Adwaita++-Dark/actions/22/format-justify-center.svg

<svg height="22" viewBox="0 0 22 22" width="22" xmlns="http://www.w3.org/2000/svg">
  <path d="m1 1v2h14v-2zm3 4.0039062v2h8v-2zm0 4v1.9999998h8v-1.9999998zm-3 3.9960938v2h14v-2z" fill="#e6ddff" transform="translate(3 3)"/>
</svg>

<svg xmlns="http://www.w3.org/2000/svg" width="22" height="22" viewBox="0 0 22 22">
 <defs>
  <style id="current-color-scheme" type="text/css">
   .ColorScheme-Text { color:#E6DDFF; } .ColorScheme-Highlight { color:#4285f4; }
  </style>
 </defs>
 <path style="fill:currentColor" class="ColorScheme-Text" d="M 1 1 L 1 3 L 15 3 L 15 1 L 1 1 z M 4 5.0039062 L 4 7.0039062 L 12 7.0039062 L 12 5.0039062 L 4 5.0039062 z M 4 9.0039062 L 4 11.003906 L 12 11.003906 L 12 9.0039062 L 4 9.0039062 z M 1 13 L 1 15 L 15 15 L 15 13 L 1 13 z" transform="translate(3 3)"/>
</svg>
